twotone/svg/local_florist.svg

<svg xmlns="http://www.w3.org/2000/svg" width="24" height="24"><path fill="none" d="M0 0h24v24H0V0z"/><g fill="currentColor"><path opacity=".3" d="M12 13c.62 0 1.12-.49 1.14-1.1l-.11-1.09c-.32.12-.67.19-1.03.19s-.7-.07-1.02-.19l-.12 1.09c.02.61.52 1.1 1.14 1.1zM8.17 7.1l.88.42c.12-.73.51-1.37 1.06-1.83l-.81-.56a1.14 1.14 0 0 0-1.78.94c-.01.44.25.83.65 1.03zM15.83 8.9l-.88-.42c-.12.73-.51 1.37-1.06 1.83l.81.57a1.14 1.14 0 0 0 1.78-.94c.01-.45-.25-.84-.65-1.04zM14.95 7.52l.88-.42c.4-.19.66-.59.66-1.03 0-.63-.51-1.14-1.14-1.14-.24 0-.46.07-.65.2l-.81.55c.55.46.94 1.1 1.06 1.84zM12 5c.36 0 .71.07 1.03.19l.11-1.09C13.12 3.49 12.62 3 12 3s-1.12.49-1.14 1.1l.12 1.09C11.3 5.07 11.64 5 12 5zM8.66 11.07c.24 0 .46-.07.65-.2l.81-.55c-.56-.46-.95-1.1-1.07-1.84l-.88.42c-.4.2-.66.59-.66 1.03 0 .63.52 1.14 1.15 1.14zM18.56 15.44c-1.9.71-3.42 2.22-4.12 4.12a7.04 7.04 0 0 0 4.12-4.12zM5.44 15.44c.71 1.9 2.22 3.42 4.12 4.12a7.04 7.04 0 0 0-4.12-4.12z"/><path d="M8.66 13.07c.15 0 .29-.01.43-.03C9.56 14.19 10.69 15 12 15s2.44-.81 2.91-1.96a3.145 3.145 0 0 0 3.57-3.11c0-.71-.25-1.39-.67-1.93.43-.54.67-1.22.67-1.93a3.145 3.145 0 0 0-3.57-3.11C14.44 1.81 13.31 1 12 1s-2.44.81-2.91 1.96a3.145 3.145 0 0 0-3.57 3.11c0 .71.25 1.39.67 1.93-.43.54-.68 1.22-.68 1.93 0 1.73 1.41 3.14 3.15 3.14zm6.68-2c-.24 0-.46-.07-.64-.2l-.81-.57c.55-.45.94-1.09 1.06-1.83l.88.42c.4.19.66.59.66 1.03 0 .64-.52 1.15-1.15 1.15zm-.65-5.94c.2-.13.42-.2.65-.2.63 0 1.14.51 1.14 1.14 0 .44-.25.83-.66 1.03l-.88.42c-.12-.74-.51-1.38-1.07-1.83l.82-.56zM12 3c.62 0 1.12.49 1.14 1.1l-.11 1.09C12.71 5.07 12.36 5 12 5s-.7.07-1.02.19l-.12-1.09c.02-.61.52-1.1 1.14-1.1zm1 5c0 .55-.45 1-1 1s-1-.45-1-1 .45-1 1-1 1 .45 1 1zm-2.02 2.81c.32.12.66.19 1.02.19s.71-.07 1.03-.19l.11 1.09c-.02.61-.52 1.1-1.14 1.1s-1.12-.49-1.14-1.1l.12-1.09zM8.66 4.93c.24 0 .46.07.64.2l.81.56c-.55.45-.94 1.09-1.06 1.83l-.88-.42c-.4-.2-.66-.59-.66-1.03 0-.63.52-1.14 1.15-1.14zM8.17 8.9l.88-.42c.12.74.51 1.38 1.07 1.83l-.81.55c-.2.13-.42.2-.65.2-.63 0-1.14-.51-1.14-1.14-.01-.43.25-.82.65-1.02zM12 22a9 9 0 0 0 9-9 9 9 0 0 0-9 9zm6.56-6.56a7.013 7.013 0 0 1-4.12 4.12 7.04 7.04 0 0 1 4.12-4.12zM3 13a9 9 0 0 0 9 9 9 9 0 0 0-9-9zm2.44 2.44c1.9.71 3.42 2.22 4.12 4.12a7.04 7.04 0 0 1-4.12-4.12z"/></g></svg>

<?xml version="1.0" encoding="utf-8"?>
<!-- Generator: Adobe Illustrator 19.1.0, SVG Export Plug-In . SVG Version: 6.00 Build 0)  -->
<svg version="1.1" xmlns="http://www.w3.org/2000/svg" xmlns:xlink="http://www.w3.org/1999/xlink" x="0px" y="0px" width="24px"
	 height="24px" viewBox="0 0 24 24" enable-background="new 0 0 24 24" xml:space="preserve">
<g id="Bounding_Boxes">
	<path fill="none" d="M0,0h24v24H0V0z"/>
</g>
<g id="Duotone" fill="currentColor">
	<g id="ui_x5F_spec_x5F_header_copy_2">
	</g>
	<g>
		<path opacity="0.3" d="M12,13c0.62,0,1.12-0.49,1.14-1.1l-0.11-1.09C12.71,10.93,12.36,11,12,11c-0.36,0-0.7-0.07-1.02-0.19
			l-0.12,1.09C10.88,12.51,11.38,13,12,13z"/>
		<path opacity="0.3" d="M8.17,7.1l0.88,0.42c0.12-0.73,0.51-1.37,1.06-1.83L9.3,5.13C9.12,5,8.89,4.93,8.66,4.93
			c-0.63,0-1.14,0.51-1.14,1.14C7.51,6.51,7.77,6.9,8.17,7.1z"/>
		<path opacity="0.3" d="M15.83,8.9l-0.88-0.42c-0.12,0.73-0.51,1.37-1.06,1.83l0.81,0.57c0.18,0.13,0.41,0.2,0.64,0.2
			c0.63,0,1.14-0.51,1.14-1.14C16.49,9.49,16.23,9.1,15.83,8.9z"/>
		<path opacity="0.3" d="M14.95,7.52l0.88-0.42c0.4-0.19,0.66-0.59,0.66-1.03c0-0.63-0.51-1.14-1.14-1.14
			c-0.24,0-0.46,0.07-0.65,0.2l-0.81,0.55C14.44,6.14,14.83,6.78,14.95,7.52z"/>
		<path opacity="0.3" d="M12,5c0.36,0,0.71,0.07,1.03,0.19l0.11-1.09C13.12,3.49,12.62,3,12,3s-1.12,0.49-1.14,1.1l0.12,1.09
			C11.3,5.07,11.64,5,12,5z"/>
		<path opacity="0.3" d="M8.66,11.07c0.24,0,0.46-0.07,0.65-0.2l0.81-0.55C9.56,9.86,9.17,9.22,9.05,8.48L8.17,8.9
			C7.77,9.1,7.51,9.49,7.51,9.93C7.51,10.56,8.03,11.07,8.66,11.07z"/>
		<path opacity="0.3" d="M18.56,15.44c-1.9,0.71-3.42,2.22-4.12,4.12C16.34,18.85,17.85,17.34,18.56,15.44z"/>
		<path opacity="0.3" d="M5.44,15.44c0.71,1.9,2.22,3.42,4.12,4.12C8.85,17.66,7.34,16.15,5.44,15.44z"/>
		<path d="M8.66,13.07c0.15,0,0.29-0.01,0.43-0.03C9.56,14.19,10.69,15,12,15s2.44-0.81,2.91-1.96c0.14,0.02,0.29,0.03,0.43,0.03
			c1.73,0,3.14-1.41,3.14-3.14c0-0.71-0.25-1.39-0.67-1.93c0.43-0.54,0.67-1.22,0.67-1.93c0-1.73-1.41-3.14-3.14-3.14
			c-0.15,0-0.29,0.01-0.43,0.03C14.44,1.81,13.31,1,12,1S9.56,1.81,9.09,2.96C8.95,2.94,8.8,2.93,8.66,2.93
			c-1.73,0-3.14,1.41-3.14,3.14c0,0.71,0.25,1.39,0.67,1.93C5.76,8.54,5.51,9.22,5.51,9.93C5.51,11.66,6.92,13.07,8.66,13.07z
			 M15.34,11.07c-0.24,0-0.46-0.07-0.64-0.2l-0.81-0.57c0.55-0.45,0.94-1.09,1.06-1.83l0.88,0.42c0.4,0.19,0.66,0.59,0.66,1.03
			C16.49,10.56,15.97,11.07,15.34,11.07z M14.69,5.13c0.2-0.13,0.42-0.2,0.65-0.2c0.63,0,1.14,0.51,1.14,1.14
			c0,0.44-0.25,0.83-0.66,1.03l-0.88,0.42c-0.12-0.74-0.51-1.38-1.07-1.83L14.69,5.13z M12,3c0.62,0,1.12,0.49,1.14,1.1l-0.11,1.09
			C12.71,5.07,12.36,5,12,5c-0.36,0-0.7,0.07-1.02,0.19L10.86,4.1C10.88,3.49,11.38,3,12,3z M13,8c0,0.55-0.45,1-1,1s-1-0.45-1-1
			s0.45-1,1-1S13,7.45,13,8z M10.98,10.81C11.3,10.93,11.64,11,12,11c0.36,0,0.71-0.07,1.03-0.19l0.11,1.09
			C13.12,12.51,12.62,13,12,13s-1.12-0.49-1.14-1.1L10.98,10.81z M8.66,4.93c0.24,0,0.46,0.07,0.64,0.2l0.81,0.56
			C9.56,6.14,9.17,6.78,9.05,7.52L8.17,7.1C7.77,6.9,7.51,6.51,7.51,6.07C7.51,5.44,8.03,4.93,8.66,4.93z M8.17,8.9l0.88-0.42
			c0.12,0.74,0.51,1.38,1.07,1.83l-0.81,0.55c-0.2,0.13-0.42,0.2-0.65,0.2c-0.63,0-1.14-0.51-1.14-1.14C7.51,9.49,7.77,9.1,8.17,8.9
			z"/>
		<path d="M12,22c4.97,0,9-4.03,9-9C16.03,13,12,17.03,12,22z M18.56,15.44c-0.71,1.9-2.22,3.42-4.12,4.12
			C15.15,17.66,16.66,16.15,18.56,15.44z"/>
		<path d="M3,13c0,4.97,4.03,9,9,9C12,17.03,7.97,13,3,13z M5.44,15.44c1.9,0.71,3.42,2.22,4.12,4.12
			C7.66,18.85,6.15,17.34,5.44,15.44z"/>
	</g>
</g>
</svg>
